X:242
T:Scotch Reel TS.242
M:C|
L:1/8
Q:1/2=80
S:Thomas Sands’ MS,1810,Lincolnshire
R:reel
O:England;Lincolnshire
Z:vmp.Ruairidh Greig, 2011
K:F
B|AFCF Acfc|dBGf eggA|F>AG>B A>cB>d|g>beg aff||
f|cf (a/g/f) c>fAc|B<G g>f egge|c>ed>f e>gfe|fdcB AFFf|
c>f (a/g/f) cfAc|B<Gg>f egge|c>ed>f e>gf>a|gbeg aff|]

